src/img/icons/audio.svg

<svg width="32" height="32" viewBox="0 0 32 32" fill="none" xmlns="http://www.w3.org/2000/svg">
<path d="M25.1283 15.9667C25.1283 14.1333 24.6371 12.4602 23.6547 10.9473C22.6722 9.43422 21.3549 8.30222 19.7027 7.55133C19.4462 7.43 19.2573 7.24877 19.136 7.00766C19.0147 6.76677 18.9998 6.521 19.0913 6.27033C19.2013 6.003 19.3922 5.81722 19.664 5.713C19.9358 5.60855 20.211 5.61711 20.4897 5.73866C22.4999 6.65133 24.1089 8.02466 25.3167 9.85866C26.5242 11.6924 27.128 13.7283 27.128 15.9663C27.128 18.2041 26.5242 20.2401 25.3167 22.0743C24.1089 23.9086 22.4999 25.282 20.4897 26.1947C20.211 26.3162 19.9358 26.3248 19.664 26.2203C19.3922 26.1161 19.2013 25.9303 19.0913 25.663C18.9998 25.4123 19.0147 25.1666 19.136 24.9257C19.2573 24.6846 19.4462 24.5033 19.7027 24.382C21.3549 23.6311 22.6722 22.4991 23.6547 20.986C24.6371 19.4731 25.1283 17.8 25.1283 15.9667ZM9.82068 19.3333H6.07701C5.73545 19.3333 5.44923 19.2178 5.21834 18.9867C4.98745 18.7558 4.87201 18.4696 4.87201 18.128V13.872C4.87201 13.5304 4.98745 13.2442 5.21834 13.0133C5.44923 12.7822 5.73545 12.6667 6.07701 12.6667H9.82068L13.8103 8.677C14.1299 8.35744 14.4978 8.28533 14.914 8.46066C15.3302 8.636 15.5383 8.94911 15.5383 9.4V22.6C15.5383 23.0509 15.3302 23.364 14.914 23.5393C14.4978 23.7147 14.1299 23.6426 13.8103 23.323L9.82068 19.3333ZM21.5383 16.0013C21.5383 16.8331 21.3657 17.6203 21.0203 18.363C20.6752 19.1057 20.2099 19.73 19.6243 20.236C19.4355 20.3624 19.2371 20.3752 19.0293 20.2743C18.8218 20.1734 18.718 20.0068 18.718 19.7743V12.159C18.718 11.9266 18.8218 11.7599 19.0293 11.659C19.2371 11.5581 19.4355 11.5702 19.6243 11.6953C20.2099 12.2164 20.6752 12.8564 21.0203 13.6153C21.3657 14.3744 21.5383 15.1698 21.5383 16.0013ZM13.5383 11.8L10.6717 14.6667H6.87168V17.3333H10.6717L13.5383 20.2V11.8Z" fill="#131212"/>
</svg>

<svg xmlns="http://www.w3.org/2000/svg" viewBox="0 0 32 32">
  <path fill="currentColor" d="M25.128 15.967c0-1.834-.49-3.507-1.473-5.02a9.11 9.11 0 0 0-3.952-3.396 1.175 1.175 0 0 1-.567-.543.894.894 0 0 1-.045-.738.97.97 0 0 1 .573-.557 1.05 1.05 0 0 1 .826.026 11.215 11.215 0 0 1 4.827 4.12c1.207 1.833 1.811 3.87 1.811 6.107 0 2.238-.604 4.274-1.811 6.108a11.217 11.217 0 0 1-4.827 4.12 1.05 1.05 0 0 1-.826.026.97.97 0 0 1-.573-.557.894.894 0 0 1 .045-.737c.121-.241.31-.423.567-.544a9.11 9.11 0 0 0 3.952-3.396c.982-1.513 1.473-3.186 1.473-5.02ZM9.821 19.333H6.077c-.342 0-.628-.115-.859-.346a1.166 1.166 0 0 1-.346-.859v-4.256c0-.342.115-.628.346-.859a1.17 1.17 0 0 1 .859-.346h3.744l3.99-3.99c.319-.32.687-.392 1.103-.216.416.175.624.488.624.939v13.2c0 .45-.208.764-.624.94-.416.175-.784.103-1.104-.217l-3.99-3.99Zm11.717-3.332c0 .832-.172 1.62-.518 2.362a5.503 5.503 0 0 1-1.396 1.873.562.562 0 0 1-.595.038.517.517 0 0 1-.311-.5V12.16c0-.232.104-.4.311-.5a.565.565 0 0 1 .595.036 5.68 5.68 0 0 1 1.396 1.92c.346.76.518 1.555.518 2.386Zm-8-4.201-2.866 2.867h-3.8v2.666h3.8l2.866 2.867v-8.4Z"/>
</svg>
